assets/images/icons/src/caret-square-o-up.svg

<?xml version="1.0" encoding="utf-8"?>
<!-- Generated by IcoMoon.io -->
<!DOCTYPE svg PUBLIC "-//W3C//DTD SVG 1.1//EN" "http://www.w3.org/Graphics/SVG/1.1/DTD/svg11.dtd">
<svg version="1.1" xmlns="http://www.w3.org/2000/svg" xmlns:xlink="http://www.w3.org/1999/xlink" width="12" height="14" viewBox="0 0 12 14">
<path fill="#444444" d="M8.945 8.727q-0.133 0.273-0.445 0.273h-5q-0.312 0-0.445-0.273-0.141-0.273 0.039-0.516l2.5-3.5q0.148-0.211 0.406-0.211t0.406 0.211l2.5 3.5q0.18 0.242 0.039 0.516zM10 10.75v-7.5q0-0.102-0.074-0.176t-0.176-0.074h-7.5q-0.102 0-0.176 0.074t-0.074 0.176v7.5q0 0.102 0.074 0.176t0.176 0.074h7.5q0.102 0 0.176-0.074t0.074-0.176zM12 3.25v7.5q0 0.93-0.66 1.59t-1.59 0.66h-7.5q-0.93 0-1.59-0.66t-0.66-1.59v-7.5q0-0.93 0.66-1.59t1.59-0.66h7.5q0.93 0 1.59 0.66t0.66 1.59z"></path>
</svg>

<svg xmlns="http://www.w3.org/2000/svg" width="12" height="14" viewBox="0 0 12 14"><path fill="#444" d="M8.945 8.727Q8.812 9 8.5 9h-5q-.312 0-.445-.273-.141-.273.039-.516l2.5-3.5Q5.742 4.5 6 4.5t.406.211l2.5 3.5q.18.242.039.516zM10 10.75v-7.5q0-.102-.074-.176T9.75 3h-7.5q-.102 0-.176.074T2 3.25v7.5q0 .102.074.176T2.25 11h7.5q.102 0 .176-.074T10 10.75zm2-7.5v7.5q0 .93-.66 1.59T9.75 13h-7.5q-.93 0-1.59-.66T0 10.75v-7.5q0-.93.66-1.59T2.25 1h7.5q.93 0 1.59.66T12 3.25z"/></svg>
